X: 35832
T: Saltón Del Medio
R: reel
M: 4/4
K: Dmajor
dfef dBGB|AFEG FDD2|dfef dBGB|ABde effe|
faef dBGB|AFEG FDD2|GABd AFDF|EDEF D2:|
gfed fd~d2|cdef ed~d2|gfed fdAd|cdeg ~f3d|
gfed fdAd|cdef ed~d2|gfed fdAd|fedc d2Bd:|

